X: 4828
T: Boys On The Hilltop, The
R: reel
M: 4/4
K: Adorian
~A3B B2AG|EGGF G2AG|EA~A2 BABd|egdB BAdB|
~A3B B2AG|EGGF G2AB|c2cA ~B3c|dBGA BAAG||
A2 (3Bcd egdB|GB~B2 defg|aged egdB|GBdB BAA2|
aged egdB|GB~B2 defg|affe fdef|g2af gedB||

